X: 10341
T: Don Oiche Ud I mBeithil
R: reel
M: 4/4
K: Eminor
D2|"Em"E2G2F2E2|"Em"D2E2z2E2|"Em"G2AB"A/E"A3F|"B"D4z2D|
"Em"E2G2F2E2|"Em"D2E2z2E2|"C"G2AB"B"F3E|"A"E4z2B2|
"G"d2B2A2B2|"G"d2e2z2f2|"C"e2 dB"G"G3A|"A"B4"B"z2D2|
"Em"E2G2F2E2|"Em"D2E2z2F2|"Am"G2AB"B"F3D|"Em"E8|

